X:1
T:Capt. Cunningham of Corsehill's Reel
M:6/8
L:1/8
R:Jig
B:John Riddell – Collection of Scots Reels, Minuets & c. for the Violin (c. 1782, p. 13)
Z:AK/Fiddler’s Companion
K:Gdor
(B/c/)|{Bc}d3 Tc2 (B/A/)|GBd f2d|{d}cAc fed|cAG (FGA/B/4c/4)|
{Bc}d3 Tc2 (B/A/)|GBd g2a|bag dg^f|g3 G2:|
g|(g/a/b)g aga|fde f2d|{d}cAc fed|cAG FGA|
(g/a/ba) gdg|fdf g2a|bag dg^f|g3 G2g|
(g/a/bg) aga|fde f2d|{d}cAc fed|cAG FGA|
BAG cBA|dcB gab|bag dg^f|g3 G2||

